icons/strikethrough-24.svg

<svg width="24" height="24" viewBox="0 0 24 24" fill="none" xmlns="http://www.w3.org/2000/svg">
<path fill-rule="evenodd" clip-rule="evenodd" d="M12.3602 5C9.36868 5 8.10488 6.61302 8.10488 7.84763C8.10488 8.25898 8.17697 8.59184 8.29817 8.86745C8.4649 9.24662 8.29269 9.68917 7.91352 9.85591C7.53435 10.0226 7.0918 9.85043 6.92506 9.47126C6.70945 8.98095 6.60488 8.43845 6.60488 7.84763C6.60488 5.48464 8.87604 3.5 12.3602 3.5C14.2913 3.5 16.0818 4.29428 17.1742 4.99983C17.5222 5.22455 17.6221 5.6888 17.3974 6.03675C17.1727 6.38471 16.7084 6.48461 16.3605 6.25989C15.4206 5.65289 13.9115 5 12.3602 5ZM16.5329 12.5H20.25C20.6642 12.5 21 12.1642 21 11.75C21 11.3358 20.6642 11 20.25 11H12.9893C12.9787 10.9998 12.9682 10.9998 12.9577 11H3.75C3.33579 11 3 11.3358 3 11.75C3 12.1642 3.33579 12.5 3.75 12.5H12.8863C14.0476 12.78 14.997 13.1879 15.646 13.7111C16.2883 14.2291 16.6247 14.8449 16.6247 15.6091C16.6247 16.2966 16.3666 17.0511 15.6713 17.6452C14.9681 18.2461 13.7371 18.75 11.672 18.75C9.65386 18.75 8.14335 18.0269 7.3959 17.3053C7.09789 17.0176 6.62309 17.026 6.33541 17.324C6.04772 17.622 6.05609 18.0968 6.3541 18.3845C7.41968 19.4132 9.3222 20.25 11.672 20.25C13.9675 20.25 15.5878 19.6895 16.6458 18.7856C17.7117 17.8748 18.1247 16.6839 18.1247 15.6091C18.1247 14.3129 17.5172 13.293 16.5875 12.5434C16.5694 12.5288 16.5512 12.5144 16.5329 12.5Z" fill="black"/>
</svg>

<svg xmlns="http://www.w3.org/2000/svg" width="24" height="24" viewBox="0 0 24 24"><path fill-rule="evenodd" d="M12.36 5C9.37 5 8.105 6.613 8.105 7.848c0 .411.072.744.193 1.02a.75.75 0 01-1.373.603 3.993 3.993 0 01-.32-1.623c0-2.363 2.271-4.348 5.755-4.348 1.931 0 3.722.794 4.814 1.5a.75.75 0 11-.814 1.26c-.94-.607-2.448-1.26-4-1.26zm4.173 7.5h3.717a.75.75 0 000-1.5H3.75a.75.75 0 000 1.5h9.136c1.162.28 2.111.688 2.76 1.211.642.518.979 1.134.979 1.898a2.63 2.63 0 01-.954 2.036c-.703.601-1.934 1.105-3.999 1.105-2.018 0-3.529-.723-4.276-1.445a.75.75 0 10-1.042 1.08c1.066 1.028 2.968 1.865 5.318 1.865 2.295 0 3.916-.56 4.974-1.464a4.131 4.131 0 001.479-3.177c0-1.296-.608-2.316-1.538-3.066a5.77 5.77 0 00-.054-.043z"/></svg>
